X: 12726
T: Father Kelly's
R: reel
M: 4/4
K: Gmajor
(3BcB GB AG (3EFG|DGGF G2 AB|(3cdc AB cBAG|EAAG FDGA|
B2 GB AGEG|D ~G3 ~G2 (3ABc|(3ded Bd gd (3Bcd|cAFA ~G2:|
d2 (3Bcd gd (3Bcd|(3ddd Bd gdBd|e2 ce agfe|defg ag (3gfe|
(3dcd Bd ~g2 Bd|dc (3Bcd gdBd|c2 Ac BA (3GAB|AGFA G2:|

